src/icons/remove-clock.svg

<?xml version="1.0" encoding="UTF-8"?>
<svg xmlns="http://www.w3.org/2000/svg" xmlns:xlink="http://www.w3.org/1999/xlink" width="32" height="32" viewBox="0 0 32 32" version="1.1">
<g id="surface1">
<path style=" stroke:none;fill-rule:nonzero;fill:rgb(0%,0%,0%);fill-opacity:1;" d="M 16 1.28125 C 7.882812 1.28125 1.28125 7.882812 1.28125 16 C 1.28125 24.117188 7.882812 30.71875 16 30.71875 C 17.707031 30.71875 19.34375 30.425781 20.871094 29.890625 C 22.042969 31.179688 23.726562 32 25.601562 32 C 29.121094 32 32 29.121094 32 25.601562 C 32 23.726562 31.179688 22.042969 29.890625 20.871094 C 30.425781 19.34375 30.71875 17.707031 30.71875 16 C 30.71875 7.882812 24.117188 1.28125 16 1.28125 Z M 16 4.480469 C 16.355469 4.480469 16.640625 4.765625 16.640625 5.121094 L 16.640625 14.199219 C 17.382812 14.460938 17.921875 15.164062 17.921875 16 C 17.921875 17.058594 17.058594 17.921875 16 17.921875 C 15.703125 17.921875 15.429688 17.847656 15.175781 17.726562 L 11.332031 21.574219 C 11.207031 21.699219 11.042969 21.761719 10.878906 21.761719 C 10.714844 21.761719 10.550781 21.699219 10.425781 21.574219 C 10.175781 21.320312 10.175781 20.917969 10.425781 20.667969 L 14.273438 16.824219 C 14.152344 16.570312 14.078125 16.296875 14.078125 16 C 14.078125 15.164062 14.617188 14.460938 15.359375 14.199219 L 15.359375 5.121094 C 15.359375 4.765625 15.644531 4.480469 16 4.480469 Z M 25.601562 20.480469 C 28.414062 20.480469 30.71875 22.785156 30.71875 25.601562 C 30.71875 28.414062 28.414062 30.71875 25.601562 30.71875 C 22.785156 30.71875 20.480469 28.414062 20.480469 25.601562 C 20.480469 22.785156 22.785156 20.480469 25.601562 20.480469 Z M 22.464844 24.960938 C 22.078125 24.960938 21.824219 25.214844 21.824219 25.601562 C 21.824219 25.984375 22.078125 26.238281 22.464844 26.238281 L 28.734375 26.238281 C 29.121094 26.238281 29.375 25.984375 29.375 25.601562 C 29.375 25.214844 29.121094 24.960938 28.800781 24.960938 Z M 22.464844 24.960938 "/>
</g>
</svg>

<svg role="img" viewBox="0 0 32 32" xmlns="http://www.w3.org/2000/svg"><path d="M16 1.281C7.883 1.281 1.281 7.883 1.281 16c0 8.117 6.602 14.719 14.719 14.719 1.707 0 3.344-.293 4.871-.828A6.382 6.382 0 0 0 25.601 32C29.122 32 32 29.121 32 25.602c0-1.875-.82-3.559-2.11-4.73A14.68 14.68 0 0 0 30.719 16c0-8.117-6.602-14.719-14.719-14.719m0 3.2c.355 0 .64.285.64.64V14.2a1.912 1.912 0 0 1 1.283 1.8A1.926 1.926 0 0 1 16 17.922c-.297 0-.57-.074-.824-.195l-3.844 3.847a.639.639 0 0 1-.906 0 .641.641 0 0 1 0-.906l3.847-3.844a1.896 1.896 0 0 1-.195-.824c0-.836.54-1.54 1.281-1.8V5.12c0-.355.286-.64.641-.64m9.602 16c2.812 0 5.117 2.304 5.117 5.12 0 2.813-2.305 5.118-5.117 5.118-2.817 0-5.122-2.305-5.122-5.117 0-2.817 2.305-5.122 5.122-5.122m-3.137 4.48c-.387 0-.64.254-.64.64 0 .383.253.637.64.637h6.27c.386 0 .64-.254.64-.636 0-.387-.254-.641-.574-.641Zm0 0" style="stroke:none;fill-rule:nonzero;fill:rgb(0%,0%,0%);fill-opacity:1"/></svg>
